!!!COM: Olivier (Eugène Prosper Charles) Messiaen
!!!OTL: [T782_Mes-w25p5m24-31]
**kern	**dynam	**kern	**dynam	**kern	**dynam
*grp:A	*grp:A	*grp:B	*grp:B	*grp:A	*grp:A
*part2	*part2	*part1	*	*part1	*part1
*staff3	*	*staff2	*	*staff1	*
*I"PED.	*	*I"[Organ] MAN.	*	*	*
*I'Ped.	*	*I'Org.	*	*	*
*clefF4	*	*clefF4	*	*clefF4	*
*k[]	*	*k[]	*	*k[]	*
*C:	*	*C:	*	*C:	*
*M2/4	*	*M2/4	*	*M2/4	*
=24	=24	=24	=24	=24	=24
!	!	!	!	!LO:TX:t=[[eighth]=52]	!
!	!	!	!	!LO:TX:a:t=┌	!
!LO:TX:t=P:problem: Organ Peddle Markings have not been added to VHV (U and V)	!	!	!	!	!
!LO:TX:a:t=┌	!	!LO:TX:a:t=┌ ↓	!	!LO:TX:a:i:t=non leg.	!
!LO:TX:a:i:t=  legato	!	!LO:TX:a:t=R	!	!LO:TX:a:B:t=Presque vif (interversions sur 5 durées chromatiques)	!
!LO:TX:b:t=꙳	!	!LO:TX:b:i:t=  legato	!	!	!
!LO:TX:b:t=꙳ = Chaque encadrement indique un terme contenent les 5 durées interverties	!	!	!	!	!
!LO:TX:a:i:t=sombre	!	!LO:TX:a:t=(R&colon; +octavin 2)	!	!LO:TX:a:t=G	!LO:DY:a
8.ryy	4ryy	[4CC [4DD	mf	16ryy	4ryy
!LO:TX:b:i:t= sombre	!	!	!	!	!
.	.	.	.	8ryy	.
16ryy	.	.	.	16ryy	.
4ryy	.	16CCKL] 16DD]	.	8ryy	.
.	.	[8.DD-XJ [8.FFn	.	.	.
.	.	.	.	8ryy	.
=25	=25	=25	=25	=25	=25
16ryy	.	16DD-XLL] 16FF]	.	8ryy	.
8ryy	.	16DDnJ 16FF#X	.	.	.
.	.	8FFnJ 8GG	.	8ryy	.
8ryy	.	.	.	.	.
16ryy	.	.	.	.	.
8.ryy	.	8.FF#XL 8.AA-X	.	8.ryy	.
!LO:TX:a:t=┌	!	!LO:TX:a:t=┌	!	!LO:TX:a:t=┌	!
16ryy	.	[16GGJk [16BBn	.	16ryy	.
=26	=26	=26	=26	=26	=26
8ryy	.	4GG] 4BB]	.	8ryy	.
8ryy	.	.	.	8ryy	.
8.ryy	.	4AA-X 4C	.	16ryy	.
.	.	.	.	8.ryy	.
16ryy	.	.	.	.	.
=27	=27	=27	=27	=27	=27
4ryy	.	16BBnKL 16D-X	.	8ryy	.
.	.	8.CJ 8.Dn	.	.	.
.	.	.	.	4ryy	.
8ryy	.	.	.	.	.
8ryy	.	/8D-XL 8Fn	.	.	.
!LO:TX:a:t=┌	!	!LO:TX:a:t=┌	!	!LO:TX:a:t=┌	!
8ryy	.	[8DnJ [8F#X	.	16ryy	.
.	.	.	.	16ryy	.
=28	=28	=28	=28	=28	=28
16ryy	.	/8.DL] 8.F#X]	.	16ryy	.
8.ryy	.	.	.	8.ryy	.
.	.	[16D-XJk [16Fn	.	.	.
8ryy	.	/8.D-L] 8.F]	.	16ryy	.
.	.	.	.	8.ryy	.
8ryy	.	.	.	.	.
8ryy	.	.	.	.	.
.	.	[16CJk [16Dn	.	.	.
=29	=29	=29	=29	=29	=29
16ryy	.	16CLL] 16D]	.	8ryy	.
8.ryy	.	16BBnJ 16D-X	.	.	.
.	.	[8AA-XJ [8C	.	8ryy	.
16ryy	.	16AA-KL] 16C]	.	16ryy	.
!LO:TX:a:t=┌	!	!LO:TX:a:t=┌	!	!LO:TX:a:t=┌	!
8.ryy	.	[8.GGJ [8.BBn	.	16ryy	.
.	.	.	.	8ryy	.
=30	=30	=30	=30	=30	=30
4ryy	.	8GG] 8BB]	.	4ryy	.
.	.	4FF#X 4AA-X	.	.	.
16ryy	.	.	.	8.ryy	.
8ryy	.	.	.	.	.
.	.	8FFn 8GG	.	.	.
16ryy	.	.	.	16ryy	.
=31	=31	=31	=31	=31	=31
*M5/16	*	*M5/16	*	*M5/16	*
8.ryy	.	8.DDnL 8.FF#X	.	4ryy	.
!LO:TX:a:t=┐	!	!LO:TX:a:t=┐	!	!LO:TX:a:t=┐	!
16ryy	.	16DD-XJk 16FFn	.	.	.
16ryy	.	16r	.	16ryy	.
=	=	=	=	=	=
*-	*-	*-	*-	*-	*-
!!!system-decoration: [({(s1,s2)})]s3
!!!RDF**kern: > = above
!!!RDF**kern: < = below
!!!EED: Daniel Wright
!!!EEV: 2022/1/21
